korla/status/symbolic/capslock-enabled-symbolic.svg

<svg xmlns="http://www.w3.org/2000/svg" width="16" height="16" version="1.1">
 <g>
  <path style="fill:#dfdfdf" d="M 0,13.203 5.2738e-4,13.75 C 0.0017,14.962 1.0386,16 2.2504,16 H 13.75 C 14.962,16 16,14.962 16,13.75 V 13.203 C 15.468,13.688 14.775,14 14,14 H 2.0004 C 1.2258,14 0.53159,13.688 0,13.203 Z"/>
  <path style="fill:#dfdfdf" d="M 3,0 C 1.9808,-2e-4 1.1244,0.7663 1.0117,1.7793 L 0.01172,10.779 C -0.11988,11.964 0.80783,13 2,13 H 14 C 15.192,13 16.12,11.964 15.988,10.779 L 14.988,1.7793 C 14.875,0.7664 14.019,-10e-5 13,0 Z M 6.8984,2 H 9.2129 L 12.123,11 H 10.213 L 9.6035,9 H 6.5273 L 5.9102,11 H 4 Z M 8.0801,3.2969 7,7.289 H 9.1797 Z"/>
 </g>
</svg>

<svg style="clip-rule:evenodd;fill-rule:evenodd;stroke-linejoin:round;stroke-miterlimit:2" version="1.1" viewBox="0 0 16 16" xmlns="http://www.w3.org/2000/svg">
 <g transform="translate(0 -.470419)">
  <path d="m0 13.203 1e-3 0.547c1e-3 1.212 1.038 2.25 2.249 2.25h11.5c1.212 0 2.25-1.038 2.25-2.25v-0.547c-0.532 0.485-1.225 0.797-2 0.797h-12c-0.774 0-1.468-0.312-2-0.797z" style="fill-rule:nonzero;fill:rgb(223,223,223)"/>
 </g>
 <path d="m0.999 12.732c-0.661-0.382-1.078-1.132-0.987-1.953l1-9c0.112-1.013 0.969-1.779 1.988-1.779h10c1.019 0 1.875 0.766 1.988 1.779l1 9c0.091 0.821-0.326 1.571-0.988 1.954v-1.732c0-0.036-2e-3 -0.074-6e-3 -0.111l-1-9c-0.056-0.506-0.484-0.89-0.994-0.89h-10c-0.51 0-0.938 0.383-0.994 0.89l-1 8.999c-5e-3 0.038-7e-3 0.075-7e-3 0.112v1.731z" style="fill:rgb(223,223,223)"/>
 <path d="m6.898 2h2.315l2.91 9h-1.91l-0.609-2h-3.077l-0.617 2h-1.91l2.898-9zm1.182 1.297-1.08 3.992h2.18l-1.1-3.992z" style="fill:rgb(223,223,223)"/>
</svg>
